assets/svg/1F47C.svg

<svg xmlns="http://www.w3.org/2000/svg" viewBox="0 0 64 64" enable-background="new 0 0 64 64"><g transform="translate(0 .795)"><g><path d="m35.893 45.32c2.026-4.495 29.15-16 27.735-12.975-5.957 12.774-20.85 30.76-23.19 28.328-2.594-2.698-6.554-10.84-4.548-15.353" fill="#bcbdbf"/><path d="m36.611 45.3c1.891-4.2 27.23-14.953 25.917-12.12-5.565 11.939-19.484 28.746-21.668 26.477-2.423-2.528-6.124-10.134-4.249-14.354" fill="#e7e6e6"/><path d="m38.923 48.19c2.083-3.52 24.452-10.914 23.01-8.548-6.069 9.994-19.68 23.573-21.22 21.421-1.708-2.397-3.865-9.335-1.792-12.873" fill="#bcbdbf"/><path d="m36.3 50.26c2.902-2.883 26.412-4.396 24.423-2.47-8.395 8.144-24.989 17.854-25.936 15.376-1.05-2.746-1.385-10.01 1.513-12.906" fill="#a7a8ac"/></g><g><path d="m27.791 45.71c-2.029-4.495-29.14-16-27.738-12.975 5.957 12.775 20.85 30.76 23.19 28.328 2.595-2.699 6.554-10.84 4.55-15.353" fill="#bcbdbf"/><path d="m27.07 45.688c-1.891-4.2-27.24-14.952-25.917-12.12 5.566 11.94 19.483 28.747 21.666 26.478 2.426-2.528 6.126-10.135 4.251-14.355" fill="#e7e6e6"/><path d="m24.76 48.582c-2.083-3.52-24.453-10.913-23.01-8.548 6.071 9.994 19.682 23.573 21.22 21.421 1.708-2.397 3.863-9.335 1.792-12.873" fill="#bcbdbf"/><path d="m27.381 50.655c-2.903-2.884-26.413-4.396-24.423-2.471 8.395 8.144 24.99 17.854 25.936 15.376 1.049-2.746 1.384-10.01-1.513-12.905" fill="#a7a8ac"/></g><path d="m20.546 63.39c4.493 0 18.955 0 21.817 0 .174 0-.983-9.308-.983-10.553 0-.093-20.04-.174-20.04-.174 0 0-.975 10.727-.797 10.727" fill="#d1d2d3"/><path d="m44.27 42.731c-5.276 0-22.289 0-25.644 0-.209 0 1.15 10.936 1.15 12.405 0 .109 23.559.206 23.559.206 0 0 1.142-12.611.935-12.611" fill="#929497"/><path d="m9.57 32.13c0 8.823 9.789 15.962 21.885 15.962 12.09 0 21.877-7.14 21.877-15.962 0-8.808-9.791-30.545-21.877-30.545-12.1 0-21.885 21.738-21.885 30.545" fill="#fbb041"/><g fill="#25333a"><path d="m27.22 32.668c0 2.156-1.45 3.905-3.227 3.905-1.784 0-3.223-1.749-3.223-3.905 0-2.157 1.438-3.917 3.223-3.917 1.777-.0001 3.227 1.76 3.227 3.917"/><path d="m42.526 32.668c0 2.156-1.447 3.905-3.222 3.905-1.787 0-3.221-1.749-3.221-3.905 0-2.157 1.434-3.917 3.221-3.917 1.775-.0001 3.222 1.76 3.222 3.917"/></g><path d="m28.869 40.506c0-1.226 1.045-1.207 2.47-1.207 1.432 0 2.691-.019 2.691 1.207 0 1.232-1.151 2.226-2.579 2.226-1.423-.0001-2.582-.994-2.582-2.226" opacity=".6" fill="#c57929"/><g fill="#633c17"><path d="m10.75 9.953c-1.458 3.137 4.087 19.345 4.314 17.08.687-6.806 1.038-3.715 4.729-15.594 1.222-3.948 4.976-8.521 2.948-8.648-2.889-.176-10.51 4.02-11.991 7.162"/><path d="m22.76 16.297c1.495 3.122 20.1 8.435 18.329 6.865-5.31-4.728-2.347-3.13-9.537-13.446-2.395-3.424-3.223-9.327-5.02-7.726-2.555 2.285-5.256 11.158-3.777 14.307"/><path d="m33.11 19.955c3.403 3.39 27.19 3.835 24.34 2.463-8.562-4.123-4.357-3.114-18.11-13.566-4.576-3.472-8.767-10.538-9.892-7.955-1.601 3.692.268 15.633 3.663 19.06"/><path d="m39.01 15.211c3.34 1.315 21.674-8.486 19.19-8.389-7.454.288-25.794-8.21-26.1-5.615-.432 3.696 3.568 12.659 6.909 14"/><path d="m44.03 19.12c3.34 1.315 21.675-8.485 19.19-8.389-7.454.287-25.795-8.21-26.1-5.616-.431 3.697 3.569 12.659 6.91 14.01"/><path d="m16.819 3.774c-2.482 3.394 1.385 28.792 2.077 26.03 2.092-8.288.518-5.561 7.468-19.11 2.304-4.499 6.543-9.323 3.758-10.03-3.098-.783-10.804-.283-13.303 3.11"/></g><path d="m31.773-.007c-16.253 0-29.432 3.18-29.432 7.107 0 3.921 13.178 7.105 29.432 7.105 16.256 0 29.434-3.184 29.434-7.105 0-3.927-13.178-7.107-29.434-7.107m-.253 8.375c-9 0-16.298-1.761-16.298-3.933 0-2.176 7.297-3.937 16.298-3.937 9 0 16.298 1.761 16.298 3.937-.0001 2.172-7.297 3.933-16.298 3.933" fill="#f7ec35"/></g></svg>

<?xml version="1.0" encoding="UTF-8" standalone="no"?>
<!-- Generator: Adobe Illustrator 16.0.0, SVG Export Plug-In . SVG Version: 6.00 Build 0)  -->

<svg
   xmlns:dc="http://purl.org/dc/elements/1.1/"
   xmlns:cc="http://creativecommons.org/ns#"
   xmlns:rdf="http://www.w3.org/1999/02/22-rdf-syntax-ns#"
   xmlns:svg="http://www.w3.org/2000/svg"
   xmlns="http://www.w3.org/2000/svg"
   xmlns:sodipodi="http://sodipodi.sourceforge.net/DTD/sodipodi-0.dtd"
   xmlns:inkscape="http://www.inkscape.org/namespaces/inkscape"
   version="1.1"
   id="Layer_1"
   x="0px"
   y="0px"
   width="64px"
   height="64px"
   viewBox="0 0 64 64"
   enable-background="new 0 0 64 64"
   xml:space="preserve"
   inkscape:version="0.48.5 r10040"
   sodipodi:docname="1F47C.svg"
   inkscape:export-filename="D:\TESTINGEMOJI\SVGTEST\1F47C.png"
   inkscape:export-xdpi="90"
   inkscape:export-ydpi="90"><metadata
   id="metadata5228"><rdf:RDF><cc:Work
       rdf:about=""><dc:format>image/svg+xml</dc:format><dc:type
         rdf:resource="http://purl.org/dc/dcmitype/StillImage" /><dc:title></dc:title></cc:Work></rdf:RDF></metadata><defs
   id="defs5226" /><sodipodi:namedview
   pagecolor="#ffffff"
   bordercolor="#666666"
   borderopacity="1"
   objecttolerance="10"
   gridtolerance="10"
   guidetolerance="10"
   inkscape:pageopacity="0"
   inkscape:pageshadow="2"
   inkscape:window-width="1115"
   inkscape:window-height="831"
   id="namedview5224"
   showgrid="false"
   inkscape:zoom="10.0625"
   inkscape:cx="32"
   inkscape:cy="32"
   inkscape:window-x="0"
   inkscape:window-y="0"
   inkscape:window-maximized="0"
   inkscape:current-layer="Layer_1" />
<g
   id="g5176"
   transform="translate(0,0.79503106)">
	<g
   id="g5178">
		<path
   d="M 35.893,45.318 C 37.919,40.823 65.039,29.317 63.628,32.343 57.671,45.117 42.778,63.103 40.441,60.671 37.847,57.973 33.887,49.831 35.893,45.318 z"
   id="path5180"
   inkscape:connector-curvature="0"
   style="fill:#bcbdbf" />
		<path
   d="M 36.611,45.297 C 38.502,41.097 63.846,30.344 62.528,33.174 56.963,45.113 43.044,61.92 40.86,59.651 38.437,57.123 34.736,49.517 36.611,45.297 z"
   id="path5182"
   inkscape:connector-curvature="0"
   style="fill:#e7e6e6" />
		<path
   d="M 38.923,48.19 C 41.006,44.67 63.375,37.276 61.935,39.642 55.866,49.636 42.255,63.215 40.715,61.063 39.007,58.666 36.85,51.728 38.923,48.19 z"
   id="path5184"
   inkscape:connector-curvature="0"
   style="fill:#bcbdbf" />
		<path
   d="M 36.302,50.263 C 39.204,47.38 62.714,45.867 60.725,47.793 52.33,55.937 35.736,65.647 34.789,63.169 33.739,60.423 33.404,53.163 36.302,50.263 z"
   id="path5186"
   inkscape:connector-curvature="0"
   style="fill:#a7a8ac" />
	</g>
	<g
   id="g5188">
		<path
   d="M 27.791,45.71 C 25.762,41.215 -1.354,29.708 0.053,32.735 c 5.957,12.775 20.85,30.76 23.188,28.328 2.595,-2.699 6.554,-10.84 4.55,-15.353 z"
   id="path5190"
   inkscape:connector-curvature="0"
   style="fill:#bcbdbf" />
		<path
   d="M 27.071,45.688 C 25.18,41.488 -0.164,30.736 1.154,33.565 6.72,45.505 20.637,62.312 22.82,60.043 25.246,57.515 28.946,49.908 27.071,45.688 z"
   id="path5192"
   inkscape:connector-curvature="0"
   style="fill:#e7e6e6" />
		<path
   d="M 24.76,48.582 C 22.677,45.062 0.307,37.669 1.746,40.034 7.817,50.028 21.428,63.607 22.968,61.455 24.676,59.058 26.831,52.12 24.76,48.582 z"
   id="path5194"
   inkscape:connector-curvature="0"
   style="fill:#bcbdbf" />
		<path
   d="M 27.381,50.655 C 24.478,47.771 0.968,46.259 2.958,48.184 c 8.395,8.144 24.99,17.854 25.936,15.376 1.049,-2.746 1.384,-10.005 -1.513,-12.905 z"
   id="path5196"
   inkscape:connector-curvature="0"
   style="fill:#a7a8ac" />
	</g>
	<path
   d="m 20.546,63.394 c 4.493,0 18.955,0 21.817,0 0.174,0 -0.983,-9.308 -0.983,-10.553 0,-0.093 -20.037,-0.174 -20.037,-0.174 0,0 -0.975,10.727 -0.797,10.727 z"
   id="path5198"
   inkscape:connector-curvature="0"
   style="fill:#d1d2d3" />
	<path
   d="m 44.27,42.731 c -5.276,0 -22.289,0 -25.644,0 -0.209,0 1.15,10.936 1.15,12.405 0,0.109 23.559,0.206 23.559,0.206 0,0 1.142,-12.611 0.935,-12.611 z"
   id="path5200"
   inkscape:connector-curvature="0"
   style="fill:#929497" />
	<path
   d="m 9.57,32.132 c 0,8.823 9.789,15.962 21.885,15.962 12.086,0 21.877,-7.14 21.877,-15.962 C 53.332,23.324 43.541,1.587 31.455,1.587 19.359,1.587 9.57,23.325 9.57,32.132 z"
   id="path5202"
   inkscape:connector-curvature="0"
   style="fill:#fbb041" />
	<path
   d="m 27.22,32.668 c 0,2.156 -1.45,3.905 -3.227,3.905 -1.784,0 -3.223,-1.749 -3.223,-3.905 0,-2.157 1.438,-3.917 3.223,-3.917 1.777,-0.001 3.227,1.76 3.227,3.917 z"
   id="path5204"
   inkscape:connector-curvature="0"
   style="fill:#25333a" />
	<path
   d="m 42.526,32.668 c 0,2.156 -1.447,3.905 -3.222,3.905 -1.787,0 -3.221,-1.749 -3.221,-3.905 0,-2.157 1.434,-3.917 3.221,-3.917 1.775,-0.001 3.222,1.76 3.222,3.917 z"
   id="path5206"
   inkscape:connector-curvature="0"
   style="fill:#25333a" />
	<path
   d="m 28.869,40.506 c 0,-1.226 1.045,-1.207 2.47,-1.207 1.432,0 2.691,-0.019 2.691,1.207 0,1.232 -1.151,2.226 -2.579,2.226 -1.423,-10e-4 -2.582,-0.994 -2.582,-2.226 z"
   id="path5208"
   inkscape:connector-curvature="0"
   style="opacity:0.6;fill:#c57929" />
	<path
   d="m 10.75,9.953 c -1.458,3.137 4.087,19.345 4.314,17.08 0.687,-6.806 1.038,-3.715 4.729,-15.594 C 21.015,7.491 24.769,2.918 22.741,2.791 19.852,2.615 12.231,6.815 10.75,9.953 z"
   id="path5210"
   inkscape:connector-curvature="0"
   style="fill:#633c17" />
	<path
   d="m 22.76,16.297 c 1.495,3.122 20.095,8.435 18.329,6.865 C 35.779,18.434 38.742,20.032 31.552,9.716 29.157,6.292 28.329,0.389 26.537,1.99 23.982,4.275 21.281,13.148 22.76,16.297 z"
   id="path5212"
   inkscape:connector-curvature="0"
   style="fill:#633c17" />
	<path
   d="m 33.113,19.955 c 3.403,3.39 27.192,3.835 24.34,2.463 C 48.891,18.295 53.096,19.304 39.342,8.852 34.766,5.38 30.575,-1.686 29.45,0.897 27.849,4.589 29.718,16.53 33.113,19.955 z"
   id="path5214"
   inkscape:connector-curvature="0"
   style="fill:#633c17" />
	<path
   d="M 39.014,15.211 C 42.354,16.526 60.688,6.725 58.204,6.822 50.75,7.11 32.41,-1.388 32.105,1.207 c -0.432,3.696 3.568,12.659 6.909,14.004 z"
   id="path5216"
   inkscape:connector-curvature="0"
   style="fill:#633c17" />
	<path
   d="m 44.034,19.117 c 3.34,1.315 21.675,-8.485 19.192,-8.389 -7.454,0.287 -25.795,-8.21 -26.102,-5.616 -0.431,3.697 3.569,12.659 6.91,14.005 z"
   id="path5218"
   inkscape:connector-curvature="0"
   style="fill:#633c17" />
	<path
   d="m 16.819,3.774 c -2.482,3.394 1.385,28.792 2.077,26.031 2.092,-8.288 0.518,-5.561 7.468,-19.108 C 28.668,6.198 32.907,1.374 30.122,0.664 27.024,-0.119 19.318,0.381 16.819,3.774 z"
   id="path5220"
   inkscape:connector-curvature="0"
   style="fill:#633c17" />
	<path
   d="m 31.773,-0.007 c -16.253,0 -29.432,3.18 -29.432,7.107 0,3.921 13.178,7.105 29.432,7.105 16.256,0 29.434,-3.184 29.434,-7.105 0,-3.927 -13.178,-7.107 -29.434,-7.107 z M 31.52,8.368 c -9.001,0 -16.298,-1.761 -16.298,-3.933 0,-2.176 7.297,-3.937 16.298,-3.937 9.001,0 16.298,1.761 16.298,3.937 -10e-4,2.172 -7.297,3.933 -16.298,3.933 z"
   id="path5222"
   inkscape:connector-curvature="0"
   style="fill:#f7ec35" />
</g>
</svg>
